Obsidian-SemiLight/actions/22s/office-chart-area-percentage.svg

<svg viewBox="0 0 22 22" xmlns="http://www.w3.org/2000/svg"><g fill="#4d4d4d"><path d="m4 3v3.9921875 1.0078125 7 1 1h-1v1h1v1h1v-1h14v-1h-14v-1h.0078125.9921875 2v-.007812l.0078125.007812 1.9999995-2h1.591797l2 2h3.5 1.900391v-1h-1.900391-3.085937l-2-2h-.013672-.992188-.408203-1.005859l-2 2h-1.59375-.9921875-.0078125v-3-1-1-2h.0078125.9921875 1.5878906l1.7070313 1.7070312.8281251.8281248 2 2 .001953-.001953.001953.001953 2.126953-2.125 1.296875 1.296875.828125.828125 1.041016 1.041016.707031-.707031-1.041015-1.041016-.828126-.828125-2-2-.003906.0039062-.005859-.0039062-2.123047 2.123047-1.294922-1.294922-.828125-.828125-1.9999999-2h-.0019531-2v-.0078125h-1v-.9921875h7v-1h-7v-2zm8 0v1h1v3h1v-4h-1zm4.5 0c-.831 0-1.5.669-1.5 1.5v1c0 .831.669 1.5 1.5 1.5s1.5-.669 1.5-1.5v-1c0-.831-.669-1.5-1.5-1.5zm4 0c-.831 0-1.5.669-1.5 1.5v1c0 .831.669 1.5 1.5 1.5s1.5-.669 1.5-1.5v-1c0-.831-.669-1.5-1.5-1.5zm-4 1c.277 0 .5.223.5.5v1c0 .277-.223.5-.5.5s-.5-.223-.5-.5v-1c0-.277.223-.5.5-.5zm4 0c.277 0 .5.223.5.5v1c0 .277-.223.5-.5.5s-.5-.223-.5-.5v-1c0-.277.223-.5.5-.5z"/><path d="m5.0078125 6v1h2.9921875l4 4v-4-1zm-.0078125 2v2 1 1 3h.0078125 2.5859375l2-2h.40625l2-.007812.007812.007812h.00586l1.992187 1.992188 1.996094.005859.998047-.998047 1.021484-1.021484s-.001953-.001954-.001953-.001954l-.599609.59961-1.041016-1.041016-.828125-.828125-1.296875-1.296875-2.126953 2.125-.001953-.001953-.001953.001953-2-2-.8281251-.8281248-1.7070313-1.7070312h-2.5800781zm5 6-2 2h-3v1h14v-1h-5.400391l-2-2z" fill-opacity=".5"/></g></svg>

<svg xmlns="http://www.w3.org/2000/svg" viewBox="0 0 22 22">
  <defs id="defs3051">
    <style type="text/css" id="current-color-scheme">
      .ColorScheme-Text {
        color:#4d4d4d;
      }
      </style>
  </defs>
 <path 
     style="fill:currentColor;fill-opacity:1;stroke:none" 
     d="M 4 3 L 4 6.9921875 L 4 8 L 4 15 L 4 16 L 4 17 L 3 17 L 3 18 L 4 18 L 4 19 L 5 19 L 5 18 L 19 18 L 19 17 L 5 17 L 5 16 L 5.0078125 16 L 6 16 L 8 16 L 8 15.992188 L 8.0078125 16 L 10.007812 14 L 11.599609 14 L 13.599609 16 L 17.099609 16 L 19 16 L 19 15 L 17.099609 15 L 14.013672 15 L 12.013672 13 L 12 13 L 11.007812 13 L 10.599609 13 L 9.59375 13 L 7.59375 15 L 6 15 L 5.0078125 15 L 5 15 L 5 12 L 5 11 L 5 10 L 5 8 L 5.0078125 8 L 6 8 L 7.5878906 8 L 9.2949219 9.7070312 L 10.123047 10.535156 L 12.123047 12.535156 L 12.125 12.533203 L 12.126953 12.535156 L 14.253906 10.410156 L 15.550781 11.707031 L 16.378906 12.535156 L 17.419922 13.576172 L 18.126953 12.869141 L 17.085938 11.828125 L 16.257812 11 L 14.257812 9 L 14.253906 9.0039062 L 14.248047 9 L 12.125 11.123047 L 10.830078 9.828125 L 10.001953 9 L 8.0019531 7 L 8 7 L 6 7 L 6 6.9921875 L 5 6.9921875 L 5 6 L 12 6 L 12 5 L 5 5 L 5 3 L 4 3 z M 12 3 L 12 4 L 13 4 L 13 7 L 14 7 L 14 3 L 13 3 L 12 3 z M 16.5 3 C 15.669 3 15 3.669 15 4.5 L 15 5.5 C 15 6.331 15.669 7 16.5 7 C 17.331 7 18 6.331 18 5.5 L 18 4.5 C 18 3.669 17.331 3 16.5 3 z M 20.5 3 C 19.669 3 19 3.669 19 4.5 L 19 5.5 C 19 6.331 19.669 7 20.5 7 C 21.331 7 22 6.331 22 5.5 L 22 4.5 C 22 3.669 21.331 3 20.5 3 z M 16.5 4 C 16.777 4 17 4.223 17 4.5 L 17 5.5 C 17 5.777 16.777 6 16.5 6 C 16.223 6 16 5.777 16 5.5 L 16 4.5 C 16 4.223 16.223 4 16.5 4 z M 20.5 4 C 20.777 4 21 4.223 21 4.5 L 21 5.5 C 21 5.777 20.777 6 20.5 6 C 20.223 6 20 5.777 20 5.5 L 20 4.5 C 20 4.223 20.223 4 20.5 4 z "
     class="ColorScheme-Text"
     />
 <path 
     style="fill:currentColor;fill-opacity:0.5;stroke:none" 
     d="M 5.0078125 6 L 5.0078125 7 L 8 7 L 12 11 L 12 7 L 12 6 L 5.0078125 6 z M 5 8 L 5 10 L 5 11 L 5 12 L 5 15 L 5.0078125 15 L 7.59375 15 L 9.59375 13 L 10 13 L 12 12.992188 L 12.007812 13 L 12.013672 13 L 14.005859 14.992188 L 16.001953 14.998047 L 17 14 L 18.021484 12.978516 C 18.021484 12.978516 18.019531 12.976562 18.019531 12.976562 L 17.419922 13.576172 L 16.378906 12.535156 L 15.550781 11.707031 L 14.253906 10.410156 L 12.126953 12.535156 L 12.125 12.533203 L 12.123047 12.535156 L 10.123047 10.535156 L 9.2949219 9.7070312 L 7.5878906 8 L 5.0078125 8 L 5 8 z M 10 14 L 8 16 L 5 16 L 5 17 L 19 17 L 19 16 L 13.599609 16 L 11.599609 14 L 10 14 z "
     class="ColorScheme-Text"
     />
</svg>
